icons/eye.svg

<svg width="24" height="24" viewBox="0 0 24 24" fill="none" xmlns="http://www.w3.org/2000/svg">
<path d="M2.04802 12.486C2.14202 12.846 2.27802 13.033 2.55002 13.406C4.03902 15.45 7.30302 19 12 19C16.697 19 19.961 15.45 21.45 13.405C21.722 13.033 21.858 12.846 21.952 12.485C22.0155 12.1644 22.0155 11.8346 21.952 11.514C21.858 11.154 21.722 10.967 21.45 10.594C19.961 8.55 16.697 5 12 5C7.30302 5 4.03902 8.55 2.55002 10.595C2.27802 10.967 2.14202 11.154 2.04802 11.515C1.98456 11.8356 1.98456 12.1654 2.04802 12.486Z" stroke="black" stroke-width="2" stroke-linecap="round" stroke-linejoin="round"/>
<path d="M12 14C12.5304 14 13.0391 13.7893 13.4142 13.4142C13.7893 13.0391 14 12.5304 14 12C14 11.4696 13.7893 10.9609 13.4142 10.5858C13.0391 10.2107 12.5304 10 12 10C11.4696 10 10.9609 10.2107 10.5858 10.5858C10.2107 10.9609 10 11.4696 10 12C10 12.5304 10.2107 13.0391 10.5858 13.4142C10.9609 13.7893 11.4696 14 12 14Z" stroke="black" stroke-width="2" stroke-linecap="round" stroke-linejoin="round"/>
</svg>

<svg xmlns="http://www.w3.org/2000/svg" width="24" height="24" viewBox="0 0 24 24" fill="none" stroke="currentColor" stroke-width="2" stroke-linecap="round" stroke-linejoin="round">
<path d="M2.048 12.486c.094.36.23.547.502.92C4.039 15.45 7.303 19 12 19s7.961-3.55 9.45-5.595c.272-.372.408-.559.502-.92.063-.32.063-.65 0-.971-.094-.36-.23-.547-.502-.92C19.961 8.55 16.697 5 12 5s-7.961 3.55-9.45 5.595c-.272.372-.408.559-.502.92a2.5 2.5 0 0 0 0 .971"/><path d="M12 14a2 2 0 1 0 0-4 2 2 0 0 0 0 4"/>
</svg>
